X:150
%%etbk:tnset id:52,pos:4,rep:3x,ant:
%%etbk:tnset id:182,pos:2,rep:3x-STOP,ant:
%%etbk:tnset id:255,pos:2,rep:2x,ant:
%%etbk:tnset id:507,pos:4,rep:3x,ant:
%%etbk:wsite http://www.thesession.org/tunes/display/408
%%etbk:pldat 2016-06-23T18:39,2016-06-22T15:36,2016-06-20T18:11,2016-06-16T18:14,2016-05-05T11:37,2016-05-04T14:46,2016-05-03T16:37,2016-05-02T18:21,2016-04-25T18:13,2016-04-09T14:54,2016-04-08T18:27,2016-04-07T15:52,2016-04-05T15:51,2016-04-04T18:50,2016-04-03T14:10,2016-04-02T14:01,2016-03-31T15:42,2016-03-30T16:20,2016-03-28T14:57,2016-03-11T15:31,2016-03-09T15:44,2016-03-08T16:16,2016-03-05T13:38,2016-03-02T15:49,2016-03-01T17:56,2016-02-29T18:18,2016-02-27T13:17,2016-02-26T17:19,2016-02-22T18:08,2016-02-13T16:09,2016-02-08T18:55,2016-02-04T19:23,2016-02-03T16:35,2016-02-02T17:32,2016-02-01T18:48,2016-01-30T13:40,2016-01-26T16:44,2016-01-21T18:31,2016-01-20T16:53,2016-01-17T13:31,2015-11-20T17:23,2015-11-18T17:02,2015-11-17T17:00,2015-11-15T15:11,2015-11-11T15:22,2015-11-10T15:23,2015-11-02T18:16,2015-10-29T18:10,2015-10-27T15:50,2015-10-24T13:10,2015-10-19T18:12,2015-10-07T15:53,2015-10-01T18:37,2015-09-10T16:35,2015-09-03T16:49,2015-09-02T16:51,2015-09-01T16:38,2015-08-31T18:59,2015-08-30T14:55,2015-08-26T16:02,2015-08-06T18:06,2015-08-05T16:37,2015-08-04T17:06,2015-08-03T18:37,2015-08-02T10:24,2015-07-30T17:49,2015-07-22T16:13,2015-06-26T17:15,2015-06-24T18:58,2015-06-21T15:53,2015-06-17T15:34,2015-06-16T17:02,2015-05-27T18:33,2015-05-26T18:15,2015-04-16T19:26,2015-04-15T16:52,2015-04-13T19:06,2015-04-12T11:35,2015-04-11T14:48,2015-03-16T19:44,2015-03-15T14:28,2015-03-13T18:42,2015-03-11T16:53,2015-03-11T16:15,2015-03-06T16:42,2015-02-22T16:36,2015-02-19T19:22,2015-02-18T17:59,2015-02-17T16:44,2015-02-12T18:40,2015-02-09T19:37,2015-02-03T15:27,2015-02-02T19:34,2015-01-28T16:23,2015-01-14T17:44,2015-01-13T15:58,2015-01-10T15:13,2015-01-10T15:07,2015-01-06T19:15,2014-12-27T14:29,2014-11-30T14:31,2014-11-19T16:35,2014-11-06T18:50,2014-11-05T18:44,2014-11-04T15:48,2014-11-02T14:17,2014-10-29T15:24,2014-10-27T18:36,2014-10-19T15:03,2014-10-15T18:58,2014-10-12T13:54,2014-10-10T16:05,2014-09-14T10:52,2014-08-21T19:30,2014-08-19T18:05,2014-08-14T19:31,2014-08-13T19:48,2014-08-12T19:18,2014-08-11T19:37,2014-08-10T11:55,2014-08-05T17:48,2014-08-03T16:47,2014-08-02T15:49,2014-07-28T19:36,2014-07-22T19:19,2014-07-05T13:37,2014-06-23T18:06,2014-06-20T16:23,2014-06-19T19:35,2014-06-17T19:08,2014-06-11T16:12,2014-06-07T15:24,2014-06-05T18:01,2014-06-03T15:15,2014-05-28T16:38,2014-04-24T19:55,2014-04-23T17:25,2014-04-22T19:46,2014-04-21T14:55,2014-04-18T12:20,2014-04-06T11:44,2014-04-02T16:36,2014-03-06T18:07,2014-03-04T19:14,2014-03-03T18:48,2014-03-02T16:30,2014-03-02T15:35,2014-03-01T15:42,2014-02-26T16:27,2014-02-25T18:58,2014-02-24T18:14,2014-02-20T18:34,2014-02-19T16:12,2014-01-30T18:56,2014-01-29T17:18,2014-01-28T17:28,2014-01-27T18:53,2014-01-26T15:39,2014-01-20T18:54,2014-01-19T14:18,2014-01-18T16:45,2014-01-17T17:38,2014-01-16T19:09,2014-01-13T19:07,2014-01-12T15:05,2014-01-03T16:03,2014-01-02T11:39,2013-12-28T12:57,2013-12-26T14:41,2013-12-17T16:02,2013-12-15T16:41,2013-10-30T17:37,2013-10-29T17:09,2013-10-27T14:06,2013-10-17T18:57,2013-10-14T18:19,2013-10-11T18:31,2013-10-07T17:49
T: Dick Gossip's
Z: Piano Box Version by Martin Fleischmann
H: Created 2013-02-19 /  Last Modified 2014-02-19
M: 4/4
L: 1/8
R: reel
K: Dmaj
|:"D"!3!F2 AF !4!GFED | !3!F2 AF !4!GFED | "A"!2!E3F !4!GFED | !2!EDEF !4!GFED | 
| "D"!3!F2AF !4!GFED | !1!DFAF !4!GFED | "A"!3!c!4!d!2!e!3!f !4!g!1!e!2!c!4!e | "D"!3!d2dc d4:|
|:"G"!4!g!1!B (3BBB !4!gB!5!aB | !4!g!1!B (3BBB !4!gfe!1!d | "A"!3!(3cBA !5!eA !5!fA!5!eA | !3!c!1!def !4!gfef |
| "G"!4!g!1!B (3BBB !4!gB!5!aB | !4!g!1!B (3BBB !4!gfe!1!d | "A"!2!c!1!def !4!g!1!e!2!c!4!e | "D"!3!d2dc d4:|


